Papirus-GTK/16x16/apps/agave.svg

<svg height="16" viewBox="0 0 16 16" width="16" xmlns="http://www.w3.org/2000/svg"><g transform="matrix(1.0666667 0 0 1.0526316 -.53333361 -.68420877)"><path d="m6.2607406 9.6482981c1.9416452 1.1507689 2.1378404 2.0329869 1.7392594 2.7416649-.3985811.708679-1.2409891.975415-3.1826347-.175354-1.9416273-1.150769-4.13731579-3.4785695-4.31736529-4.2696283.75740579-.2354359 3.81911299.5525484 5.76074059 1.7033174z" fill="#80ffb3"/><path d="m7.8291764 9.1229011c1.120998 1.9931669.8611903 2.8579019.1708236 3.2670619-.6903668.409161-1.549825.207766-2.670823-1.785401-1.1209979-1.9931302-1.8886936-5.1360293-1.659305-5.9135308.7706184.1848372 3.0383065 2.4387397 4.1593044 4.4318699z" fill="#2aff80"/><path d="m9.443376 9.4729435c0 2.3015005-.6462215 2.9170195-1.443376 2.9170195-.7971546 0-1.443376-.615519-1.443376-2.9170195 0-2.3015009.8660256-5.4173226 1.443376-5.9729454.5773504.5556228 1.443376 3.6714445 1.443376 5.9729454z" fill="#00d455"/><path d="m10.670823 10.604562c-1.1210157 1.993167-1.9804671 2.194562-2.670823 1.785401-.6903563-.40916-.9501932-1.273895.1708228-3.2670619 1.121016-1.9931302 3.3886722-4.2470327 4.1593052-4.4318699.229367.7775015-.538289 3.9204006-1.659305 5.9135308z" fill="#0a4"/><path d="m10.670823 10.604562c-1.1210157 1.993167-1.9804671 2.194562-2.670823 1.785401-.6903563-.40916-.9501932-1.273895.1708228-3.2670619 1.121016-1.9931302 3.3886722-4.2470327 4.1593052-4.4318699.229367.7775015-.538289 3.9204006-1.659305 5.9135308z" fill="#0a4"/><path d="m11.182635 12.214609c-1.9416611 1.150732-2.7840633.884033-3.182635.175354-.3985721-.708678-.2024021-1.590933 1.739259-2.7416649 1.941643-1.1507319 5.003322-1.9387903 5.760741-1.7033174-.180068.7910588-2.375722 3.1188963-4.317365 4.2696283z" fill="#008033"/></g></svg>

<?xml version="1.0" encoding="UTF-8" standalone="no"?>
<svg
   xmlns:dc="http://purl.org/dc/elements/1.1/"
   xmlns:cc="http://creativecommons.org/ns#"
   xmlns:rdf="http://www.w3.org/1999/02/22-rdf-syntax-ns#"
   xmlns:svg="http://www.w3.org/2000/svg"
   xmlns="http://www.w3.org/2000/svg"
   xmlns:sodipodi="http://sodipodi.sourceforge.net/DTD/sodipodi-0.dtd"
   xmlns:inkscape="http://www.inkscape.org/namespaces/inkscape"
   version="1.1"
   id="svg2"
   viewBox="0 0 16 16"
   height="16"
   width="16"
   inkscape:version="0.91 r13725"
   sodipodi:docname="agave.svg">
  <sodipodi:namedview
     pagecolor="#ffffff"
     bordercolor="#666666"
     borderopacity="1"
     objecttolerance="10"
     gridtolerance="10"
     guidetolerance="10"
     inkscape:pageopacity="0"
     inkscape:pageshadow="2"
     inkscape:window-width="1600"
     inkscape:window-height="849"
     id="namedview21"
     showgrid="false"
     inkscape:zoom="1"
     inkscape:cx="11.034713"
     inkscape:cy="8"
     inkscape:window-x="0"
     inkscape:window-y="0"
     inkscape:window-maximized="1"
     inkscape:current-layer="svg2" />
  <defs
     id="defs4" />
  <metadata
     id="metadata7">
    <rdf:RDF>
      <cc:Work
         rdf:about="">
        <dc:format>image/svg+xml</dc:format>
        <dc:type
           rdf:resource="http://purl.org/dc/dcmitype/StillImage" />
        <dc:title />
      </cc:Work>
    </rdf:RDF>
  </metadata>
  <g
     id="g4214"
     transform="matrix(1.0666667,0,0,1.0526316,-0.53333361,-0.68420877)">
    <path
       id="path4149"
       d="M 6.2607406,9.6482981 C 8.2023858,10.799067 8.398581,11.681285 8,12.389963 7.6014189,13.098642 6.7590109,13.365378 4.8173653,12.214609 2.875738,11.06384 0.68004951,8.7360395 0.50000001,7.9449807 1.2574058,7.7095448 4.319113,8.4975291 6.2607406,9.6482981 Z"
       style="opacity:1;fill:#80ffb3;fill-opacity:1;stroke:none;stroke-width:0.2;stroke-miterlimit:4;stroke-dasharray:none;stroke-opacity:1"
       inkscape:connector-curvature="0" />
    <path
       style="opacity:1;fill:#2aff80;fill-opacity:1;stroke:none;stroke-width:0.2;stroke-miterlimit:4;stroke-dasharray:none;stroke-opacity:1"
       d="M 7.8291764,9.1229011 C 8.9501744,11.116068 8.6903667,11.980803 8,12.389963 7.3096332,12.799124 6.450175,12.597729 5.329177,10.604562 4.2081791,8.6114318 3.4404834,5.4685327 3.669872,4.6910312 4.4404904,4.8758684 6.7081785,7.1297709 7.8291764,9.1229011 Z"
       id="path4147"
       inkscape:connector-curvature="0" />
    <path
       id="path4136"
       d="M 9.443376,9.4729435 C 9.443376,11.774444 8.7971545,12.389963 8,12.389963 7.2028454,12.389963 6.556624,11.774444 6.556624,9.4729435 6.556624,7.1714426 7.4226496,4.0556209 8,3.4999981 8.5773504,4.0556209 9.443376,7.1714426 9.443376,9.4729435 Z"
       style="opacity:1;fill:#00d455;fill-opacity:1;stroke:none;stroke-width:0.2;stroke-miterlimit:4;stroke-dasharray:none;stroke-opacity:1"
       inkscape:connector-curvature="0" />
    <path
       style="opacity:1;fill:#00aa44;fill-opacity:1;stroke:none;stroke-width:0.2;stroke-miterlimit:4;stroke-dasharray:none;stroke-opacity:1"
       d="M 10.670823,10.604562 C 9.5498073,12.597729 8.6903559,12.799124 8,12.389963 7.3096437,11.980803 7.0498068,11.116068 8.1708228,9.1229011 9.2918388,7.1297709 11.559495,4.8758684 12.330128,4.6910312 12.559495,5.4685327 11.791839,8.6114318 10.670823,10.604562 Z"
       id="path4143"
       inkscape:connector-curvature="0" />
    <path
       id="path4189"
       d="M 10.670823,10.604562 C 9.5498073,12.597729 8.6903559,12.799124 8,12.389963 7.3096437,11.980803 7.0498068,11.116068 8.1708228,9.1229011 9.2918388,7.1297709 11.559495,4.8758684 12.330128,4.6910312 12.559495,5.4685327 11.791839,8.6114318 10.670823,10.604562 Z"
       style="opacity:1;fill:#00aa44;fill-opacity:1;stroke:none;stroke-width:0.2;stroke-miterlimit:4;stroke-dasharray:none;stroke-opacity:1"
       inkscape:connector-curvature="0" />
    <path
       id="path4145"
       d="M 11.182635,12.214609 C 9.2409739,13.365341 8.3985717,13.098642 8,12.389963 7.6014279,11.681285 7.7975979,10.79903 9.739259,9.6482981 11.680902,8.4975662 14.742581,7.7095078 15.5,7.9449807 15.319932,8.7360395 13.124278,11.063877 11.182635,12.214609 Z"
       style="opacity:1;fill:#008033;fill-opacity:1;stroke:none;stroke-width:0.2;stroke-miterlimit:4;stroke-dasharray:none;stroke-opacity:1"
       inkscape:connector-curvature="0" />
  </g>
</svg>
